icons/pixelfed-fill.svg

<svg width="24" height="24" fill="none" xmlns="http://www.w3.org/2000/svg"><g clip-path="url(#a)"><path d="M12 2c5.523 0 10 4.477 10 10s-4.477 10-10 10S2 17.523 2 12 6.477 2 12 2Zm1.031 6.099h-2.624c-.988 0-1.789.776-1.789 1.733v6.748l2.595-2.471h1.818c1.713 0 3.101-1.345 3.101-3.005s-1.388-3.005-3.1-3.005h-.001Z" /></g><defs><clipPath id="a"><path fill="#fff" d="M0 0h24v24H0z"/></clipPath></defs></svg>

<svg xmlns="http://www.w3.org/2000/svg" width="24" height="24" fill="none"><g clip-path="url(#a)"><g><path fill="#121212" d="M12 2C17.523 2 22 6.477 22 12C22 17.523 17.523 22 12 22C6.477 22 2 17.523 2 12C2 6.477 6.477 2 12 2ZM13.031 8.099H10.407C9.419 8.099 8.618 8.875 8.618 9.832V16.58L11.213 14.109H13.031C14.744 14.109 16.132 12.764 16.132 11.104C16.132 9.444 14.744 8.099 13.032 8.099H13.031Z"/></g></g><defs><clipPath id="a"><rect width="24" height="24" fill="white"/></clipPath></defs></svg>
